X:1
T:The Word of Faith
T:The Word of Faith
T:Roger Mills Hickman
T:Roger Mills Hickman, 1915
T:Public Domain Courtesy of the Cyber Hymnal™
C:Roger Mills Hickman
Z:Public Domain
Z:Courtesy of the Cyber Hymnal™
%%score ( 1 2 ) ( 3 4 )
L:1/8
Q:1/4=108
M:4/4
K:Bb
V:1 treble 
V:2 treble 
V:3 bass 
V:4 bass 
V:1
 [DF]2 | [DB]3 [DA] [DG][DF][EG][EA] | [DB]2 [DB]2 [DB]2 [DB]2 | [Fd]3 [Ec] [DB]2 [FB]2 | %4
w: 1.~The|glor- ious Gos- pel of the|Son of God Is|free to all who|
w: 2.~His|word is sure, His prom- ise|can- not fail, His|love ex- tends to|
w: 3.~’Twas|not the right- eous Je- sus|came to call, But|sin- ners dead in|
w: 4.~That|great word, “who- so- ev- er|will may come,” In-|cludes the whole of|
 [Fc]6 [Fc]2 | [Fc]3 [FB] [FA][FG]F[FG] | [FA]2 [FB]2 [Fc]2 [Fd]2 | [Fc]3 [FB] [FA]2 [=EG]2 | F6 || %9
w: hear; To|all who wish His right- eous-|ness to claim, This|word of faith is|near.|
w: all; His|grace, whose depths are deep- er|than the sea, Is|free for ev- ery|call.|
w: sin; And|all who come con- fess- ing|Him as Lord, May|now new life be-|gin.|
w: man; Re-|demp- tion’s work, thro’ death, has|been de- creed E’er|since the world be-|gan.|
"^Refrain" [EF]2 | [DB]4 [DB]2 [FA]2 | [FA][EG][EG][EG] [EG]2 [EG][EG] | [=Ec]3 [Ec] [Ec]2 [GB]2 | %13
w: ||||
w: If|thou shalt con-|fess Him as your Lord, And be-|lieve that God hath|
w: ||||
w: ||||
 [GB][FA][FA][FA] [FA]2 [EF]2 | [DB]4 [Gc]4 | [^Fd]6 [=Fe]2 | [Fd]4 [Ec]4 | [DB]6 |] %18
w: |||||
w: raised Him from the dead, Thou|shalt be|saved, thou|shalt be|saved.|
w: |||||
w: |||||
V:2
 x2 | x8 | x8 | x8 | x8 | x6 F x | x8 | x8 | F6 || x2 | x8 | x8 | x8 | x8 | x8 | x8 | x8 | x6 |] %18
V:3
 [B,,B,]2 | [B,,F,]3 [B,,B,] [B,,B,][B,,B,][B,,B,][B,,B,] | [B,,F,]2 [B,,G,]2 [B,,F,]2 [B,,F,]2 | %3
w: ~|~ ~ ~ ~ ~ ~|~ ~ ~ ~|
 [B,,B,]3 [B,,B,] [B,,F,]2 [D,B,]2 | [F,A,]6 [F,A,]2 | [F,A,]3 [F,G,] F,[F,G,][F,A,][F,B,] | %6
w: ~ ~ ~ ~|~ ~|~ ~ ~ ~ ~ ~|
 [E,C]2 [D,B,]2 [C,A,]2 [B,,B,]2 | [A,,C]3 [B,,D] [C,C]2 [C,B,]2 | [F,A,]6 || F,2 | %10
w: ~ ~ ~ ~|~ ~ ~ ~|~|~|
 [B,,F,]4 [B,,F,]2 [D,B,]2 | [E,B,][E,B,][E,B,][E,B,] [E,B,]2 [E,B,][E,B,] | %12
w: ~ ~ ~|~ ~ ~ ~ ~ ~ ~|
 [C,B,]3 [C,B,] [C,B,]2 [=E,C]2 | [F,C][F,C][F,C][F,C] [F,C]2 [F,C]2 | [G,B,]4 (B,2 G,2) | %15
w: ~ ~ ~ ~|~ ~ ~ ~ ~ ~|~ ~ *|
 [D,A,]6 [C,A,]2 | [B,,B,]2 [D,B,]2 [F,A,]2 F,2 | [B,,F,]6 |] %18
w: ~ ~|~ Thou shalt be|saved.|
V:4
 x2 | x8 | x8 | x8 | x8 | x4 F, x3 | x8 | x8 | x6 || F,2 | x8 | x8 | x8 | x8 | x4 E,4 | x8 | %16
 x6 F,2 | x6 |] %18

